X:213
T:Duncan McQueen
R:Slow Strathspey
B:The Athole Collection
M:C
L:1/8
Q:1/4=140
K:A Minor
A|E>A A/A/A A>GA>c|e>c d<e c<G ~G2|E>A A/A/A A>GA>a|
g>ed>e c<A A:|
f|e>cd>e A/A/A f2|e>cd>e c<G G2|e>cd>e A/A/A f2|
e>cd>e c<A Af|e>cd>e A/A/A f2|e>cd>e c<G G>B|c>BA>B c>d e<a|
g>cd>e c<AA||
z|G>cE>c G>cE>c|e>cd>e cG G2|G>cE>c G>cE>a|g>ed>e c<A A2|
G>cE>c G>cE>c|e>cd>e c<G G>B|c>BA>B c>d e<a|g>ed>e c<A Az||
A<a ~a2 A<a ~a2|G<g ~g2 G<g ~g2|A<a ~a2 A<a ~a2|g>ed>e cAAz|
(3aba (3gag (3ege c2|(3ege (3ded c<G G>B|c>BA>B c>d e<a|g>ed>e c<AA||

